X:314
T:Harper's Frolick
C:Ashover Book, c. 1764
M:2/2
L:1/4
S:Colin Hume's website,  colinhume.com  - chords can also be printed below the stave.
N:Converted from 2:4 to 2:2
Q:1/2=112
K:D
P:A
|:A | "D"FADA | "D"FADd | "A7"cdec | "D"d/c/d/e/ dA |\
"D"FADA | "D"FADd | "A7"cd ed/c/ | "D"d3 :|
P:B
|:g | "Bm"f d2 e/f/ | "Em"g e2 g | "Bm"f d2 f | "A"e/d/c/B/ A3/g/ |\
"Bm"f d2 e/f/ | "Em"ge2 g | "D"fd "A7"f/e/d/c/ | "D"d3 :|

